flaticon/dialogue/chat-43.svg

<svg xmlns="http://www.w3.org/2000/svg" width="32" height="32" viewBox="0 0 24 24">
    <path d="M 21.628906 0.398438 L 6.371094 0.398438 C 5.0625 0.398438 4 1.464844 4 2.773438 L 4 6 L 2.371094 6 C 1.0625 6 0 7.0625 0 8.371094 L 0 16.828125 C 0 18.136719 1.0625 19.199219 2.371094 19.199219 L 4.800781 19.199219 L 4.800781 23.199219 C 4.800781 23.363281 4.902344 23.511719 5.054688 23.574219 C 5.101562 23.589844 5.152344 23.601562 5.199219 23.601562 C 5.308594 23.601562 5.417969 23.554688 5.496094 23.46875 L 9.375 19.199219 L 17.628906 19.199219 C 18.9375 19.199219 20 18.136719 20 16.828125 L 20 13.601562 L 21.628906 13.601562 C 22.9375 13.601562 24 12.535156 24 11.226562 L 24 2.773438 C 24 1.464844 22.9375 0.398438 21.628906 0.398438 Z M 19.199219 16.828125 C 19.199219 17.695312 18.496094 18.398438 17.628906 18.398438 L 9.199219 18.398438 C 9.085938 18.398438 8.980469 18.449219 8.902344 18.53125 L 5.601562 22.164062 L 5.601562 18.800781 C 5.601562 18.578125 5.421875 18.398438 5.199219 18.398438 L 2.371094 18.398438 C 1.503906 18.398438 0.800781 17.695312 0.800781 16.828125 L 0.800781 8.371094 C 0.800781 7.503906 1.503906 6.800781 2.371094 6.800781 L 17.628906 6.800781 C 18.167969 6.800781 18.648438 7.074219 18.929688 7.492188 C 19.101562 7.746094 19.199219 8.046875 19.199219 8.371094 Z M 23.199219 11.226562 C 23.199219 12.09375 22.496094 12.800781 21.628906 12.800781 L 20 12.800781 L 20 8.371094 C 20 8.207031 19.984375 8.046875 19.953125 7.894531 C 19.9375 7.816406 19.914062 7.742188 19.894531 7.667969 C 19.59375 6.703125 18.691406 6 17.628906 6 L 4.800781 6 L 4.800781 2.773438 C 4.800781 1.90625 5.503906 1.199219 6.371094 1.199219 L 21.628906 1.199219 C 22.496094 1.199219 23.199219 1.90625 23.199219 2.773438 Z M 23.199219 11.226562"/>
    <path d="M4.800781 11.199219C3.917969 11.199219 3.199219 11.917969 3.199219 12.800781 3.199219 13.683594 3.917969 14.398438 4.800781 14.398438 5.683594 14.398438 6.398438 13.683594 6.398438 12.800781 6.398438 11.917969 5.683594 11.199219 4.800781 11.199219zM4.800781 13.601562C4.359375 13.601562 4 13.242188 4 12.800781 4 12.359375 4.359375 12 4.800781 12 5.242188 12 5.601562 12.359375 5.601562 12.800781 5.601562 13.242188 5.242188 13.601562 4.800781 13.601562zM10 11.199219C9.117188 11.199219 8.398438 11.917969 8.398438 12.800781 8.398438 13.683594 9.117188 14.398438 10 14.398438 10.882812 14.398438 11.601562 13.683594 11.601562 12.800781 11.601562 11.917969 10.882812 11.199219 10 11.199219zM10 13.601562C9.558594 13.601562 9.199219 13.242188 9.199219 12.800781 9.199219 12.359375 9.558594 12 10 12 10.441406 12 10.800781 12.359375 10.800781 12.800781 10.800781 13.242188 10.441406 13.601562 10 13.601562zM15.199219 11.199219C14.316406 11.199219 13.601562 11.917969 13.601562 12.800781 13.601562 13.683594 14.316406 14.398438 15.199219 14.398438 16.082031 14.398438 16.800781 13.683594 16.800781 12.800781 16.800781 11.917969 16.082031 11.199219 15.199219 11.199219zM15.199219 13.601562C14.757812 13.601562 14.398438 13.242188 14.398438 12.800781 14.398438 12.359375 14.757812 12 15.199219 12 15.640625 12 16 12.359375 16 12.800781 16 13.242188 15.640625 13.601562 15.199219 13.601562zM15.199219 13.601562"/>
</svg>

<svg xmlns="http://www.w3.org/2000/svg" width="32" height="32" viewBox="0 0 24 24">
    <path d="M21.629.398H6.37A2.376 2.376 0 0 0 4 2.773V6H2.371A2.372 2.372 0 0 0 0 8.371v8.457A2.372 2.372 0 0 0 2.371 19.2h2.43v4c0 .164.101.313.254.375a.473.473 0 0 0 .144.028c.11 0 .219-.047.297-.133l3.879-4.27h8.254A2.372 2.372 0 0 0 20 16.83v-3.227h1.629A2.376 2.376 0 0 0 24 11.227V2.773A2.376 2.376 0 0 0 21.629.398zm-2.43 16.43a1.57 1.57 0 0 1-1.57 1.57h-8.43a.412.412 0 0 0-.297.133l-3.3 3.633v-3.363a.402.402 0 0 0-.403-.403H2.371a1.57 1.57 0 0 1-1.57-1.57V8.371c0-.867.703-1.57 1.57-1.57H17.63a1.568 1.568 0 0 1 1.57 1.57zm4-5.601c0 .867-.703 1.574-1.57 1.574H20V8.37c0-.164-.016-.324-.047-.476-.015-.079-.039-.153-.058-.227A2.378 2.378 0 0 0 17.629 6H4.8V2.773c0-.867.703-1.574 1.57-1.574H21.63c.867 0 1.57.707 1.57 1.574zm0 0"/>
    <path d="M4.8 11.2c-.882 0-1.6.718-1.6 1.6a1.6 1.6 0 1 0 1.6-1.6zm0 2.402A.802.802 0 0 1 4.8 12a.802.802 0 0 1 0 1.602zm0 0M10 11.2c-.883 0-1.602.718-1.602 1.6A1.6 1.6 0 0 0 10 14.399a1.6 1.6 0 0 0 1.602-1.597c0-.883-.72-1.602-1.602-1.602zm0 2.402A.802.802 0 0 1 10 12a.802.802 0 0 1 0 1.602zm0 0M15.2 11.2a1.6 1.6 0 1 0 1.6 1.6c0-.882-.718-1.6-1.6-1.6zm0 2.402a.802.802 0 0 1 0-1.602.802.802 0 0 1 0 1.602zm0 0"/>
</svg>
